public/img/old-svg/clock.svg

<svg width="18" height="18" viewBox="0 0 18 18" fill="none" xmlns="http://www.w3.org/2000/svg">
<path d="M9 0C4.03749 0 0 4.03749 0 9C0 13.9625 4.03749 18 9 18C13.9625 18 18 13.9625 18 9C18 4.03749 13.9625 0 9 0ZM9 16.875C4.65765 16.875 1.12501 13.3424 1.12501 9C1.12501 4.65765 4.65765 1.12501 9 1.12501C13.3424 1.12501 16.875 4.65765 16.875 9C16.875 13.3424 13.3424 16.875 9 16.875Z" fill="black" fill-opacity="0.4"/>
<path d="M9.5625 3.375H8.4375V9.2329L11.9773 12.7727L12.7727 11.9773L9.5625 8.76707V3.375Z" fill="black" fill-opacity="0.4"/>
</svg>

<svg width="18" height="18" viewBox="0 0 18 18" fill="none" xmlns="http://www.w3.org/2000/svg"><path d="M9 0C4.037 0 0 4.037 0 9s4.037 9 9 9 9-4.037 9-9-4.037-9-9-9zm0 16.875c-4.342 0-7.875-3.533-7.875-7.875 0-4.342 3.533-7.875 7.875-7.875 4.342 0 7.875 3.533 7.875 7.875 0 4.342-3.533 7.875-7.875 7.875z" fill="#000" fill-opacity=".4"/><path d="M9.563 3.375H8.437v5.858l3.54 3.54.796-.796-3.21-3.21V3.375z" fill="#000" fill-opacity=".4"/></svg>
